img/sidebar/contact.svg

<?xml version="1.0" encoding="UTF-8"?>
<svg width="35px" height="39px" viewBox="0 0 35 39" version="1.1" xmlns="http://www.w3.org/2000/svg" xmlns:xlink="http://www.w3.org/1999/xlink">
    <title>35BDF9CE-F221-428B-A8E5-3A2FC120E362@2.00x</title>
    <g id="homepage" stroke="none" stroke-width="1" fill="none" fill-rule="evenodd">
        <g id="Nav-Side" transform="translate(-55.000000, -748.000000)" fill-rule="nonzero">
            <g id="Group-45" transform="translate(52.000000, 748.000000)">
                <g id="contact-(2)" transform="translate(3.000000, 0.000000)">
                    <path d="M32.9990571,14.9813391 L18.7791063,0.752815618 C17.6851135,0.752514823 17.0717166,0.751988431 15.9777238,0.751988431 L1.74002603,14.9811135 C1.15422704,15.5665365 0.825081706,16.3607867 0.825081706,17.1889516 L0.825081706,34.6242545 C0.825081706,36.348188 2.22257701,37.7456833 3.94651048,37.7456833 L30.7910687,37.7456833 C32.5150022,37.7456833 33.9124975,36.348188 33.9124975,34.6242545 L33.9124975,17.1878988 C33.9124975,16.3603355 33.5840289,15.5666869 32.9990571,14.9813391 Z" id="XMLID_1037_" fill="#FFCA00" fill-opacity="0"></path>
                    <path d="M4.43470137,19.4930441 L4.43470137,7.0720752 C4.43470137,5.82196963 5.44808098,4.80859002 6.69818655,4.80859002 L28.0396182,4.80859002 C29.2897238,4.80859002 30.3031034,5.82196963 30.3031034,7.0720752 L30.3031034,19.5036471 L19.5774172,30.1377411 C18.3163326,31.3880723 16.2811511,31.381906 15.0276616,30.1239046 L4.43470137,19.4930441 Z" id="XMLID_1029_" fill="#FFCA00" fill-opacity="0"></path>
                    <path d="M19.5853883,30.2313637 C18.3667158,31.4507129 16.3903398,31.4513145 15.1709906,30.2327173 L1.02548662,16.0909732 C0.894715835,16.4387679 0.825156905,16.810175 0.825156905,17.1889516 L0.825156905,34.6241793 C0.825156905,36.3481128 2.22265221,37.7456833 3.94666088,37.7456833 L30.7912191,37.7456833 C32.5151526,37.7456833 33.9127231,36.348188 33.9127231,34.6241793 L33.9127231,17.1878236 C33.9127231,16.8118294 33.8442169,16.4431294 33.7153261,16.0975155 L19.5853883,30.2313637 Z" id="XMLID_1311_" fill="#FFCA00" fill-opacity="0"></path>
                    <g id="XMLID_80_" fill="#000000">
                        <path d="M33.5308633,14.4496833 L31.0550166,11.9727838 L31.0550166,7.06455531 C31.0550166,5.40596963 29.7056486,4.05660159 28.0470629,4.05660159 L23.1440983,4.05660159 L19.3109877,0.221234996 C19.1699899,0.0802371656 18.9787592,0.000902386117 18.7793319,0.000827187274 L15.9779494,-1.59382831e-15 C15.9778742,-1.59382831e-15 15.977799,-1.59382831e-15 15.9777238,-1.59382831e-15 C15.7783717,-1.59382831e-15 15.587141,0.0791843818 15.4461432,0.220107014 L11.6072422,4.05667679 L6.69059147,4.05667679 C5.03200578,4.05667679 3.68263774,5.40604483 3.68263774,7.06463051 L3.68263774,11.9806797 L1.20844541,14.4491569 C0.476384671,15.1808416 0.0731684743,16.1538395 0.0731684743,17.1889516 L0.0731684743,34.6241793 C0.0731684743,35.6675633 0.488566884,36.6151439 1.16174693,37.3123124 C1.1762603,37.3296833 1.19137527,37.3467534 1.20769342,37.3631468 C1.22393637,37.3793897 1.24093131,37.3943543 1.25822704,37.4087925 C1.95539552,38.0821229 2.90312654,38.4976717 3.94666088,38.4976717 L13.9849544,38.4976717 C14.4002777,38.4976717 14.7369429,38.1609313 14.7369429,37.7456833 C14.7369429,37.3304353 14.4002777,36.9936949 13.9849544,36.9936949 L3.94658568,36.9936949 C3.56705712,36.9936949 3.20843384,36.9035315 2.89004194,36.7441851 L11.7536544,27.8805727 L14.6393348,30.7645235 C15.3708691,31.4956819 16.3431902,31.8982213 17.3773999,31.8982213 L17.378603,31.8982213 C18.4132639,31.8979205 19.3858106,31.4947043 20.1171945,30.7628691 L22.9908431,27.8874158 L31.8476124,36.7441851 C31.5292957,36.9034563 31.1705973,36.9936949 30.7910687,36.9936949 L20.7528503,36.9936949 C20.3375271,36.9936949 20.0008619,37.3304353 20.0008619,37.7456833 C20.0008619,38.1609313 20.3375271,38.4976717 20.7528503,38.4976717 L30.7912191,38.4976717 C31.834603,38.4976717 32.7823341,38.0821981 33.4795025,37.4089429 C33.4968735,37.3944295 33.5139436,37.3793897 33.5301866,37.3631468 C33.5465799,37.3467534 33.5616197,37.3296833 33.5762082,37.3122372 C34.2493131,36.6150687 34.6647115,35.6674881 34.6647115,34.6241793 L34.6647115,17.1878236 C34.6647115,16.1536891 34.2620217,15.1812928 33.5308633,14.4496833 L33.5308633,14.4496833 Z M31.0550918,14.1001591 L32.4671005,15.5128445 C32.5974953,15.6433145 32.7102184,15.7866435 32.8053449,15.9394476 L31.0550918,17.6908286 L31.0550918,14.1001591 Z M16.2889718,1.50405206 L18.4674071,1.50480405 L21.0177007,4.05667679 L13.7347679,4.05667679 L16.2889718,1.50405206 Z M2.27115546,15.5134461 L3.68271294,14.1051222 L3.68271294,17.6883471 L1.93291106,15.9396732 C2.0280376,15.7869443 2.14083586,15.6436905 2.27115546,15.5134461 Z M1.8265799,35.6807231 C1.66730875,35.3624064 1.57714534,35.0037831 1.57714534,34.6242545 L1.57714534,17.7103051 L10.6898915,26.8174114 L1.8265799,35.6807231 Z M19.0535069,29.6997831 C18.6060738,30.1474418 18.0111757,30.3942444 17.378227,30.3942444 C17.3780014,30.3942444 17.3777758,30.3942444 17.3775503,30.3942444 C16.7449024,30.3942444 16.1500795,30.1479682 15.7025712,29.7006855 L5.1866898,19.1913463 L5.1866898,7.06455531 C5.1866898,6.23526247 5.86137383,5.56057845 6.69066667,5.56057845 L28.0471381,5.56057845 C28.8764309,5.56057845 29.551115,6.23526247 29.551115,7.06455531 L29.551115,12.1881533 C29.5439711,12.2479364 29.5439711,12.3082458 29.551115,12.3680289 L29.551115,19.1956327 L19.0535069,29.6997831 Z M33.1606594,34.6242545 C33.1606594,35.0037831 33.070496,35.3624064 32.9112249,35.6807231 L24.0541547,26.8236529 L33.1606594,17.7115835 L33.1606594,34.6242545 Z" id="XMLID_89_"></path>
                        <path d="M17.3689024,36.9934693 C17.1711294,36.9934693 16.9771164,37.073932 16.8372466,37.2138019 C16.6973767,37.3536717 16.616914,37.5476847 16.616914,37.7454577 C16.616914,37.9432307 16.6973767,38.1372437 16.8372466,38.2771135 C16.9771164,38.4177354 17.1711294,38.4974461 17.3689024,38.4974461 C17.5666753,38.4974461 17.7606884,38.4177354 17.9005582,38.2771135 C18.0404281,38.1372437 18.1208908,37.9432307 18.1208908,37.7454577 C18.1208908,37.5476847 18.0404281,37.3536717 17.9005582,37.2138019 C17.7606884,37.0740072 17.5666753,36.9934693 17.3689024,36.9934693 Z" id="XMLID_135_"></path>
                        <path d="M17.3689024,8.71426753 C13.4539002,8.71426753 10.2688532,11.8992393 10.2688532,15.8142415 C10.2688532,19.7827852 13.4975155,23.0114476 17.4660593,23.0114476 L22.0365698,23.0114476 C22.451893,23.0114476 22.7885582,22.6747072 22.7885582,22.2594591 C22.7885582,21.8442111 22.451893,21.5074707 22.0365698,21.5074707 L17.4660593,21.5074707 C14.3268084,21.5074707 11.7728301,18.9534924 11.7728301,15.8142415 C11.7728301,12.7286074 14.2831931,10.2182444 17.3689024,10.2182444 C20.4546117,10.2182444 22.9649747,12.7286074 22.9649747,15.8142415 L22.9649747,17.3552914 C22.9649747,17.9475575 22.4831005,18.4293565 21.8908344,18.4293565 C21.2985683,18.4293565 20.8166941,17.9475575 20.8166941,17.3552914 L20.8166941,15.6146638 C20.8166941,13.5557946 19.1417151,11.8808156 17.082846,11.8808156 C14.9178713,11.8808156 13.1566392,13.6421229 13.1566392,15.8070976 C13.1566392,17.9719971 14.9179465,19.7333044 17.082846,19.7333044 L18.2791092,19.7333044 C18.6944324,19.7333044 19.0310976,19.396564 19.0310976,18.981316 C19.0310976,18.566068 18.6944324,18.2293275 18.2791092,18.2293275 L17.082846,18.2293275 C15.7472393,18.2293275 14.6606161,17.1427043 14.6606161,15.8070224 C14.6606161,14.4714158 15.7472393,13.3847925 17.082846,13.3847925 C18.3124223,13.3847925 19.3127173,14.3851627 19.3127173,15.6146638 L19.3127173,17.3552914 C19.3127173,18.7768503 20.4692003,19.9333333 21.8908344,19.9333333 C23.3124685,19.9333333 24.4689516,18.7768503 24.4689516,17.3552914 L24.4689516,15.8142415 C24.4689516,11.8992393 21.2838294,8.71426753 17.3689024,8.71426753 L17.3689024,8.71426753 Z" id="XMLID_136_"></path>
                    </g>
                </g>
            </g>
        </g>
    </g>
</svg>

<svg width="35" height="39" xmlns="http://www.w3.org/2000/svg"><g fill-rule="nonzero" fill="none"><path d="M33 14.981L18.78.753 15.977.752 1.74 14.982a3.121 3.121 0 00-.915 2.207v17.435a3.121 3.121 0 003.122 3.122H30.79a3.121 3.121 0 003.121-3.122V17.188c0-.828-.328-1.621-.913-2.207z" fill="none"/><path d="M4.435 19.493V7.073a2.263 2.263 0 012.263-2.264H28.04a2.263 2.263 0 012.263 2.263v12.432L19.577 30.138a3.221 3.221 0 01-4.55-.014L4.436 19.493z" fill="none"/><path d="M19.585 30.231a3.122 3.122 0 01-4.414.002L1.025 16.09c-.13.348-.2.72-.2 1.098v17.435a3.121 3.121 0 003.122 3.122H30.79a3.121 3.121 0 003.122-3.122V17.188a3.12 3.12 0 00-.198-1.09L19.585 30.23z" fill="none"/><g fill="#000"><path d="M33.53 14.45l-2.475-2.477V7.065a3.011 3.011 0 00-3.008-3.008h-4.903L19.311.22a.752.752 0 00-.532-.22L15.978 0c-.2 0-.39.08-.532.22l-3.839 3.837H6.691a3.011 3.011 0 00-3.008 3.008v4.916l-2.475 2.468a3.848 3.848 0 00-1.135 2.74v17.435a3.86 3.86 0 001.089 2.688.785.785 0 00.096.097 3.86 3.86 0 002.689 1.089h10.038a.752.752 0 000-1.504H3.947c-.38 0-.739-.09-1.057-.25l8.864-8.863 2.885 2.884a3.848 3.848 0 002.738 1.133h.002a3.848 3.848 0 002.738-1.135l2.874-2.876 8.857 8.857c-.319.16-.677.25-1.057.25H20.753a.752.752 0 000 1.504H30.79a3.86 3.86 0 002.689-1.09.763.763 0 00.096-.096 3.86 3.86 0 001.089-2.688V17.188a3.848 3.848 0 00-1.134-2.738zm-2.475-.35l1.412 1.413c.13.13.243.274.338.426l-1.75 1.752V14.1zM16.29 1.504h2.178l2.55 2.553h-7.282l2.554-2.553zM2.271 15.514l1.412-1.409v3.583l-1.75-1.748c.095-.153.208-.296.338-.427zM1.827 35.68a2.354 2.354 0 01-.25-1.057V17.71l9.113 9.107-8.863 8.864zM19.054 29.7a2.353 2.353 0 01-1.676.694 2.354 2.354 0 01-1.675-.693L5.187 19.19V7.065c0-.83.674-1.504 1.504-1.504h21.356c.83 0 1.504.674 1.504 1.504v5.123a.758.758 0 000 .18v6.828L19.054 29.7zm14.107 4.924c0 .38-.09.738-.25 1.057l-8.857-8.857 9.107-9.112v16.912z"/><path d="M17.369 36.993a.758.758 0 00-.532.22.758.758 0 00-.22.532.754.754 0 001.284.532c.14-.14.22-.334.22-.532a.758.758 0 00-.22-.531.758.758 0 00-.532-.22zM17.369 8.714a7.108 7.108 0 00-7.1 7.1c0 3.969 3.229 7.197 7.197 7.197h4.57a.752.752 0 000-1.504h-4.57a5.7 5.7 0 01-5.693-5.693 5.602 5.602 0 015.596-5.596 5.602 5.602 0 015.596 5.596v1.541a1.075 1.075 0 01-2.148 0v-1.74a3.738 3.738 0 00-3.734-3.734 3.93 3.93 0 00-3.926 3.926 3.93 3.93 0 003.926 3.926h1.196a.752.752 0 000-1.504h-1.196a2.425 2.425 0 01-2.422-2.422 2.425 2.425 0 012.422-2.422c1.23 0 2.23 1 2.23 2.23v1.74a2.58 2.58 0 002.578 2.578 2.58 2.58 0 002.578-2.578v-1.54c0-3.916-3.185-7.1-7.1-7.1z"/></g></g></svg>
